human-male-male-child.svg

<svg fill="currentColor" viewBox="0 0 24 24"><path d="M12.5 11.5c.8 0 1.5-.7 1.5-1.5s-.7-1.5-1.5-1.5S11 9.2 11 10s.7 1.5 1.5 1.5M5.5 6c1.1 0 2-.9 2-2s-.9-2-2-2-2 .9-2 2 .9 2 2 2m2 16v-7H9V9c0-1.1-.9-2-2-2H4c-1.1 0-2 .9-2 2v6h1.5v7zm6.5 0v-4h1v-4c0-.8-.7-1.5-1.5-1.5h-2c-.8 0-1.5.7-1.5 1.5v4h1v4zm4.5-16c1.1 0 2-.9 2-2s-.9-2-2-2-2 .9-2 2 .9 2 2 2M22 9v6h-1.5v7H17v-8c0-1.4-.8-2.6-2-3.1V9c0-1.1.9-2 2-2h3c1.1 0 2 .9 2 2"/></svg>

<svg  viewBox="0 0 24 24" fill="currentColor"><path  d="M12.5 11.5C13.3 11.5 14 10.8 14 10S13.3 8.5 12.5 8.5 11 9.2 11 10 11.7 11.5 12.5 11.5M5.5 6C6.6 6 7.5 5.1 7.5 4S6.6 2 5.5 2 3.5 2.9 3.5 4 4.4 6 5.5 6M7.5 22V15H9V9C9 7.9 8.1 7 7 7H4C2.9 7 2 7.9 2 9V15H3.5V22H7.5M14 22V18H15V14C15 13.2 14.3 12.5 13.5 12.5H11.5C10.7 12.5 10 13.2 10 14V18H11V22H14M18.5 6C19.6 6 20.5 5.1 20.5 4S19.6 2 18.5 2 16.5 2.9 16.5 4 17.4 6 18.5 6M22 9V15H20.5V22H17V14C17 12.6 16.2 11.4 15 10.9V9C15 7.9 15.9 7 17 7H20C21.1 7 22 7.9 22 9Z"/></svg>
